X:514
T:Crabs in the Skillet
R:jig
D:Liz Carroll: Lost in the Loop
D:Horslips: Drive the Cold Winter Away
Z:id:hn-jig-514
M:6/8
L:1/8
K:Gdor
G3 d2F | G2A B2c | d_ed cBA | dcB AGF |
G3 d2F | G2A B2d | cAc f=ed |1 cAF F2D :|2 cAF F2d || 
|: gag gfe | fgf fed | cde fed | cAG G2d |
gag gfe | ~f3 fed | cde fed |1 cAF F2d :|2 cAF F2D ||
|: G3 A3 | B3 c3 | d_ed cBA | dcB AGF |
G3 A3 | B3 d3 | cAc f=ed | cAF F2D :|
P:variations
|: ~G3 d2F | G2A B2c | d_ed cBA | dcB AGF |
~G3 d2F | G2A B2d | c=Bc f=ed |1 cAF FEF :|2 cAF G2d || 
|: gag gfe | ~f3 fed | cde fed | cAF F2d |
gag gfe | fgf fed | cde fed |1 cAF G2d :|2 cAF GDE ||
|: GDG AGA | BAB c=Bc | d_ed cBA | dcB AGF |
GDG AGA | BAB d3 | c=Bc f=ed |1 cAF FEF :|2 cAF F2D ||

